X:1
T:Fanfare
T:Fanfare
T:Claude Gervaise/Attaingnant
C:Claude Gervaise/Attaignant
%%score 1 2 3 4
L:1/8
M:4/2
K:Ab
V:1 alto nm="Trombone" snm="Tbn."
V:2 bass nm="Trombone" snm="Tbn."
V:3 bass nm="Trombone" snm="Tbn."
V:4 bass nm="Trombone basse" snm="Tbn. B"
V:1
!f! A4[Q:1/2=75] F4[Q:1/4=160] E4 C4 | A3 G FGAB c4 c z cd | e3 d c2 B2 A4 F2 c2 | %3
 BAGF EFFE F4 F z cd | e3 d c2 B2 A4 F2 c2 | BAGF EFFE F4 F4 | z16 | z16 | z16 | z16 | z16 | z16 | %12
 z16 | z16 | z16 | z16 | z16 | z16 | z16 | z16 |!f! A4 F4 E4 C4 | ABAG FGAB c4 c z cd | %22
 e3 d c2 B2 ABAG FAcA | BAGF EFFE F4 F z cd |"^\n.""^Rit." e3 d cdcB A4 FAcA | %25
 BAGF EFFE F4 !fermata!F4 |] %26
V:2
 z16 | z16 | z16 | z16 | z16 | z16 |!mf! A,4 F,4 E,4 C,4 | A,3 G, F,G,A,B, C4 C2 CD | %8
 E3 D C2 B,2 A,4 F,2 C2 | B,A,G,F, E,F,F,E, F,4 F,2 CD | E3 D C2 B,2 A,4 F,2 C2 | %11
 B,A,G,F, E,F,F,E, F,4 F,4 |!f! C,4 !>!G,2 !>!G,2 E,4 !>!A,2 !>!A,2 | F,4 F,4 =E,4 E,4 | %14
!p! C,4 !>!G,2 !>!G,2 E,4 !>!A,2 !>!A,2 | F,4 F,4 =E,4 E,4 |!f! E,4 A,2 E,2 C,4 A,2 A,2 | %17
 B,4 C4 C,4 C,2!mf! CD | E3 D C2 B,2 A,4 F,2 C2 | B,A,G,F, E,F,F,E, F,4 F,4 | z16 | z16 | z16 | %23
 z16 | z16 | z16 |] %26
V:3
 z16 | z16 | z16 | z16 | z16 | z16 |!mf! C,4 D,4 A,,G,,A,,B,, C,4 | C,4 D,2 F,2 =E,4 E,2 z2 | %8
 G,4 A,2 E,2 C,4 A,2 z2 | B,4 C4 C,4 C,2 z2 | B,4 F,2 G,2 A,4 A,2 F,2 | B,4 C4 C,4 C,4 | %12
!f! A,4 !>!B,2 !>!B,2 C4 !>!C2 !>!C2 | D3 C B,CDB, C4 C4 |!p! A,4 !>!B,2 !>!B,2 C4 !>!C2 !>!C2 | %15
 D3 C B,CDB, C4 C2!f! CD | E3 D C2 B,2 A,4 F,2 C2 | B,A,G,F, E,F,F,E, F,4 F,2 z2 | %18
!mf! E,4 F,2 G,2 A,4 A,2 C2 | B,4 C4 C,4 C,4 | z16 | z16 | z16 | z16 | z16 | z16 |] %26
V:4
 z16 | z16 | z16 | z16 | z16 | z16 |!mf! F,,4 B,,4 E,,4 A,,2 G,,2 | F,,4 A,,2 D,2 C,4 C,2 z2 | %8
 E,,4 F,,2 G,,2 A,,4 D,2 A,,2 | B,,4 C,4 F,,4 F,,2 z2 | E,,4 A,,2 E,,2 A,,4 D,2 A,,2 | %11
 B,,4 C,4 F,,4 F,,4 |!f! A,,4 !>!E,,2 !>!E,,2 [A,,,A,,]4 !>!E,,2 !>!E,,2 | F,,4 F,,4 C,,4 C,,4 | %14
!p! A,,4 !>!E,,2 !>!E,,2 [A,,,A,,]4 !>!E,,2 !>!E,,2 | F,,4 F,,4 C,,4 C,,4 | %16
!f! E,,4 F,,2 G,,2 A,,4 D,2 A,,2 | B,,4 C,4 F,,4 F,,2 z2 |!mf! E,,4 A,,2 E,,2 A,,4 D,2 A,,2 | %19
 B,,4 C,4 F,,4 F,,4 | z16 | z16 | z16 | z16 | z16 | z16 |] %26

